svg/ufe82b.svg

<svg viewBox="0 0 128 128" xmlns="http://www.w3.org/2000/svg">
  <path d="M4,20.8v5.6v5.3v5.1c0,0,0,3.3,0,4.9v4.7c0,0,0,3,0,4.5v4.4c0,0,0,2.9,0,4.4s0,2.9,0,4.3v4.3 c0,0,0,2.9,0,4.4v4.4v4.5c0,0,0,3.1,0,4.7s0,3.2,0,4.9s0,3.3,0,5.1v5.3v5.6c1.8-1.1,3.7-2.1,5.4-2.8s3.5-1.4,5.2-2s3.4-0.9,5.1-1.3 c1.7-0.3,3.3-0.5,4.9-0.7c1.6-0.1,3.2-0.2,4.8-0.2s3.1,0.1,4.6,0.2s3,0.3,4.5,0.5s3,0.4,4.4,0.7s2.9,0.6,4.3,0.9s2.8,0.7,4.2,1.1 s2.8,0.8,4.2,1.2c1.4,0.4,2.8,0.8,4.2,1.2s2.8,0.8,4.2,1.2c1.4,0.4,2.8,0.8,4.2,1.2s2.8,0.8,4.2,1.2c1.4,0.4,2.8,0.8,4.2,1.2 s2.8,0.7,4.2,1.1c1.4,0.3,2.9,0.6,4.3,0.9s2.9,0.5,4.4,0.7s3,0.4,4.5,0.5s3.1,0.2,4.6,0.2s3.1-0.1,4.8-0.2s3.2-0.4,4.9-0.7 c1.7-0.3,3.3-0.7,5.1-1.3s3.5-1.2,5.2-2s3.6-1.7,5.4-2.8v-5.6v-5.3v-5.1c0,0,0-3.3,0-4.9s0-3.2,0-4.7s0-3.1,0-4.5v-4.4v-4.4 c0,0,0-2.9,0-4.3v-4.3c0,0,0-2.9,0-4.4s0-2.9,0-4.4v-4.5c0,0,0-3.1,0-4.7v-4.9c0,0,0-3.3,0-5.1v-5.3v-5.6c-1.8,1.1-3.7,2.1-5.4,2.9 c-1.8,0.8-3.5,1.5-5.2,2s-3.4,1-5.1,1.3s-3.3,0.5-4.9,0.7s-3.2,0.2-4.8,0.2s-3.1-0.1-4.6-0.2s-3-0.3-4.5-0.5s-2.9-0.5-4.4-0.7 s-2.9-0.6-4.3-0.9s-2.8-0.7-4.2-1c-1.4-0.4-2.8-0.8-4.2-1.1s-2.8-0.8-4.2-1.2c-1.4-0.4-2.8-0.8-4.2-1.2c-1.4-0.4-2.8-0.8-4.2-1.2 s-2.8-0.8-4.2-1.2c-1.4-0.4-2.8-0.8-4.2-1.1s-2.8-0.7-4.2-1s-2.9-0.6-4.3-0.9c-1.5-0.3-2.9-0.5-4.4-0.7s-3-0.4-4.5-0.5 s-3.1-0.2-4.6-0.2s-3.1,0.1-4.8,0.2s-3.2,0.4-4.9,0.7c-1.7,0.3-3.3,0.7-5.1,1.3c-1.7,0.5-3.5,1.2-5.2,2C7.7,18.7,5.9,19.7,4,20.8 L4,20.8z" fill="#F2F2F2"/>
  <linearGradient id="SVGID_1_" gradientTransform="matrix(1 0 0 1 0 -714)" gradientUnits="userSpaceOnUse" x1="5.3767" x2="122.3772" y1="736.6472" y2="819.1497">
    <stop offset="0" stop-color="#FFFFFF" stop-opacity="0"/>
    <stop offset="0.1646" stop-color="#C8C8C8" stop-opacity="0.1646"/>
    <stop offset="0.3934" stop-color="#828282" stop-opacity="0.3934"/>
    <stop offset="0.5997" stop-color="#4A4A4A" stop-opacity="0.5997"/>
    <stop offset="0.7759" stop-color="#222222" stop-opacity="0.7759"/>
    <stop offset="0.9151" stop-color="#090909" stop-opacity="0.9151"/>
    <stop offset="1" stop-color="#000000"/>
  </linearGradient>
  <path d="M124,107.2c-6.9,4.2-14.6,6.5-22.6,6.9s-16-1-23.8-3 c-15.8-4-31.4-10.8-48-10.9c-9,0-17.8,2.3-25.6,7c0-9.7,0-19.3,0-29c0-9.4,0-18.7,0-28.1c0-7.9,0-15.9,0-23.8c0-1.5,0-2.9,0-4.4 c0-0.3-0.1-0.9,0-1.2c0.2-0.4,1.3-0.7,1.6-0.9c1.1-0.6,2.3-1.2,3.5-1.8c4.8-2.2,9.9-3.5,15.1-4C34.7,13,45,15.3,55,18.1 c20,5.6,41.5,14.5,62.1,6.1c2.4-1,4.7-2.1,6.8-3.5c0,5.2,0,10.5,0,15.7c0,4.8,0,9.6,0,14.4c0,5.1,0,10.2,0,15.2c0,6.2,0,12.4,0,18.6 c0,7.1,0,14.2,0,21.3C124,106.5,124,106.8,124,107.2z" enable-background="new " fill="url(#SVGID_1_)" opacity="0.3"/>
  <g opacity="0.2">
    <path d="M120,27c0,10.1,0,20.2,0,30.3c0,7.9,0,15.7,0,23.6c0,3.8,0,7.7,0,11.5c0,1.9,0,3.9,0,5.8 c0,2,0,4.1,0,6.1c0,0.2,0.1,0.8,0,1c-0.1,0.1-0.7,0.3-0.7,0.3c-0.5,0.2-0.9,0.4-1.4,0.6c-1.1,0.5-2.3,0.9-3.4,1.3 c-16.4,5.6-33.4,0.7-49.2-4.1c-16.4-4.9-34-10.5-51-5.1c-2.1,0.7-4.2,1.5-6.2,2.5c0-8.6,0-17.2,0-25.8c0-8.9,0-17.8,0-26.7 c0-5.6,0-11.3,0-16.9c0-1.7,0-3.4,0-5c0-0.8,0-1.5,0-2.3c0-0.3,0-0.7,0-1c0-0.6,0.1-0.7,0.7-1c2.1-1,4.2-1.8,6.4-2.4 c16-4.8,32.5,0,48,4.7c16.3,4.9,33.8,10.4,50.7,5C115.9,28.8,118,28,120,27 M124,20.8c-9.1,5.5-19.5,7.6-30,6.8 c-10.7-0.8-21-4.1-31.1-7.1c-10.2-3.1-20.5-6.1-31.2-6.6c-5.2-0.2-10.5,0.3-15.6,1.7c-2.5,0.7-5,1.6-7.3,2.7 c-1.1,0.5-2.1,1-3.2,1.6C5.3,20,4.1,20.5,4,20.8c0,0.1,0,0.2,0,0.3c-0.1,0.4,0,1,0,1.5c0,0.7,0,1.4,0,2.1s0,1.3,0,2 c0,1.8,0,3.7,0,5.5c0,4.5,0,9,0,13.4c0,9.5,0,19.1,0,28.6c0,10.1,0,20.2,0,30.3c0,0.9,0,1.8,0,2.7c9.1-5.5,19.6-7.6,30.2-6.8 c10.7,0.8,21.1,4.1,31.3,7.2s20.5,6.1,31.2,6.5c5.2,0.2,10.5-0.4,15.5-1.8c2.5-0.7,4.9-1.6,7.3-2.7c1.1-0.5,2.1-1.1,3.2-1.7 c0.3-0.2,1.2-0.5,1.3-0.8c0-0.1,0-0.3,0-0.4c0.2-1.8,0-3.7,0-5.5s0-3.7,0-5.5c0-6.3,0-12.5,0-18.8c0-9.4,0-18.8,0-28.2 c0-8.5,0-16.9,0-25.4C124,22.5,124,21.6,124,20.8z" fill="#424242"/>
  </g>
  <path d="M58,73.7c0-3.1,0.2-6.6,1.7-9.3c1.7-3,4.8-4.2,7.4-6.2c2.8-2.1,3.7-4.9,3-8.3 c-0.7-3.2-3.1-5.4-6.2-6.3c-1.5-0.4-3.2-0.5-4.6,0.4c-1.4,1-1.8,2.8-1.9,4.5c-2.9-0.9-5.9-1.7-8.8-2.4c-0.7-0.2-1.5-0.4-2.2-0.5 c-0.6-0.1-0.6-0.2-0.5-0.8c0-0.4,0-0.8,0.1-1.2c0.1-1.5,0.5-3,1-4.3c2.6-6.3,9.6-7,15.5-5.5c6.2,1.5,12.3,4.7,16.1,9.9 c3.6,4.9,5.1,12.8,1.4,18.1c-2,2.8-5,4.7-7.8,6.6c-1.4,0.9-2.5,2.1-3.2,3.7c-0.6,1.5-0.7,3.2-0.8,4.8C64.9,75.8,61.5,74.7,58,73.7z M56.9,85.7c0-2.5,1.5-4.5,4.1-4.6c2.8-0.1,5.6,1.5,7.2,3.6c1.5,2,2.5,5.3,1,7.6c-1.5,2.4-4.7,1.9-6.9,1C59.2,92,56.9,89,56.9,85.7z " fill="#0071BC"/>
</svg>

<svg viewBox="0 0 128 128" xmlns="http://www.w3.org/2000/svg">
  <defs>
    <linearGradient id="SVGID_1_" gradientUnits="userSpaceOnUse" x1="5.3767" x2="122.3772" y1="22.6472" y2="105.1497">
      <stop offset="0" stop-color="#FFFFFF" stop-opacity="0"/>
      <stop offset="0.1646" stop-color="#C8C8C8" stop-opacity="0.1646"/>
      <stop offset="0.3934" stop-color="#828282" stop-opacity="0.3934"/>
      <stop offset="0.5997" stop-color="#4A4A4A" stop-opacity="0.5997"/>
      <stop offset="0.7759" stop-color="#222222" stop-opacity="0.7759"/>
      <stop offset="0.9151" stop-color="#090909" stop-opacity="0.9151"/>
      <stop offset="1" stop-color="#000000"/>
    </linearGradient>
  </defs>
  <path d="M4,20.8 L4,26.4 L4,31.7 L4,36.8 C4,36.8 4,40.1 4,41.7 L4,46.4 C4,46.4 4,49.4 4,50.9 L4,55.3 C4,55.3 4,58.2 4,59.7 C4,61.2 4,62.6 4,64 L4,68.3 C4,68.3 4,71.2 4,72.7 L4,77.1 L4,81.6 C4,81.6 4,84.7 4,86.3 C4,87.9 4,89.5 4,91.2 C4,92.9 4,94.5 4,96.3 L4,101.6 L4,107.2 C5.8,106.1 7.7,105.1 9.4,104.4 C11.1,103.7 12.9,103 14.6,102.4 C16.3,101.8 18,101.5 19.7,101.1 C21.4,100.8 23,100.6 24.6,100.4 C26.2,100.3 27.8,100.2 29.4,100.2 C31,100.2 32.5,100.3 34,100.4 C35.5,100.5 37,100.7 38.5,100.9 C40,101.1 41.5,101.3 42.9,101.6 C44.3,101.9 45.8,102.2 47.2,102.5 C48.6,102.8 50,103.2 51.4,103.6 C52.8,104 54.2,104.4 55.6,104.8 C57,105.2 58.4,105.6 59.8,106 C61.2,106.4 62.6,106.8 64,107.2 C65.4,107.6 66.8,108 68.2,108.4 C69.6,108.8 71,109.2 72.4,109.6 C73.8,110 75.2,110.4 76.6,110.8 C78,111.2 79.4,111.5 80.8,111.9 C82.2,112.2 83.7,112.5 85.1,112.8 C86.5,113.1 88,113.3 89.5,113.5 C91,113.7 92.5,113.9 94,114 C95.5,114.1 97.1,114.2 98.6,114.2 C100.1,114.2 101.7,114.1 103.4,114 C105.1,113.9 106.6,113.6 108.3,113.3 C110,113 111.6,112.6 113.4,112 C115.2,111.4 116.9,110.8 118.6,110 C120.3,109.2 122.2,108.3 124,107.2 L124,101.6 L124,96.3 L124,91.2 C124,91.2 124,87.9 124,86.3 C124,84.7 124,83.1 124,81.6 C124,80.1 124,78.5 124,77.1 L124,72.7 L124,68.3 C124,68.3 124,65.4 124,64 L124,59.7 C124,59.7 124,56.8 124,55.3 C124,53.8 124,52.4 124,50.9 L124,46.4 C124,46.4 124,43.3 124,41.7 L124,36.8 C124,36.8 124,33.5 124,31.7 L124,26.4 L124,20.8 C122.2,21.9 120.3,22.9 118.6,23.7 C116.8,24.5 115.1,25.2 113.4,25.7 C111.7,26.2 110,26.7 108.3,27 C106.6,27.3 105,27.5 103.4,27.7 C101.8,27.9 100.2,27.9 98.6,27.9 C97,27.9 95.5,27.8 94,27.7 C92.5,27.6 91,27.4 89.5,27.2 C88,27 86.6,26.7 85.1,26.5 C83.6,26.3 82.2,25.9 80.8,25.6 C79.4,25.3 78,24.9 76.6,24.6 C75.2,24.2 73.8,23.8 72.4,23.5 C71,23.2 69.6,22.7 68.2,22.3 C66.8,21.9 65.4,21.5 64,21.1 C62.6,20.7 61.2,20.3 59.8,19.9 C58.4,19.5 57,19.1 55.6,18.7 C54.2,18.3 52.8,17.9 51.4,17.6 C50,17.3 48.6,16.9 47.2,16.6 C45.8,16.3 44.3,16 42.9,15.7 C41.4,15.4 40,15.2 38.5,15 C37,14.8 35.5,14.6 34,14.5 C32.5,14.4 30.9,14.3 29.4,14.3 C27.9,14.3 26.3,14.4 24.6,14.5 C22.9,14.6 21.4,14.9 19.7,15.2 C18,15.5 16.4,15.9 14.6,16.5 C12.9,17 11.1,17.7 9.4,18.5 C7.7,18.7 5.9,19.7 4,20.8 L4,20.8 Z" fill="#F2F2F2"/>
  <path d="M124,107.2 C117.1,111.4 109.4,113.7 101.4,114.1 C93.4,114.5 85.4,113.1 77.6,111.1 C61.8,107.1 46.2,100.3 29.6,100.2 C20.6,100.2 11.8,102.5 4,107.2 C4,97.5 4,87.9 4,78.2 C4,68.8 4,59.5 4,50.1 C4,42.2 4,34.2 4,26.3 C4,24.8 4,23.4 4,21.9 C4,21.6 3.9,21 4,20.7 C4.2,20.3 5.3,20 5.6,19.8 C6.7,19.2 7.9,18.6 9.1,18 C13.9,15.8 19,14.5 24.2,14 C34.7,13 45,15.3 55,18.1 C75,23.7 96.5,32.6 117.1,24.2 C119.5,23.2 121.8,22.1 123.9,20.7 C123.9,25.9 123.9,31.2 123.9,36.4 C123.9,41.2 123.9,46 123.9,50.8 C123.9,55.9 123.9,61 123.9,66 C123.9,72.2 123.9,78.4 123.9,84.6 C123.9,91.7 123.9,98.8 123.9,105.9 C124,106.5 124,106.8 124,107.2 Z" fill="url(#SVGID_1_)" opacity="0.3"/>
  <path d="M120,27 C120,37.1 120,47.2 120,57.3 C120,65.2 120,73 120,80.9 C120,84.7 120,88.6 120,92.4 C120,94.3 120,96.3 120,98.2 C120,100.2 120,102.3 120,104.3 C120,104.5 120.1,105.1 120,105.3 C119.9,105.4 119.3,105.6 119.3,105.6 C118.8,105.8 118.4,106 117.9,106.2 C116.8,106.7 115.6,107.1 114.5,107.5 C98.1,113.1 81.1,108.2 65.3,103.4 C48.9,98.5 31.3,92.9 14.3,98.3 C12.2,99 10.1,99.8 8.1,100.8 C8.1,92.2 8.1,83.6 8.1,75 C8.1,66.1 8.1,57.2 8.1,48.3 C8.1,42.7 8.1,37 8.1,31.4 C8.1,29.7 8.1,28 8.1,26.4 C8.1,25.6 8.1,24.9 8.1,24.1 C8.1,23.8 8.1,23.4 8.1,23.1 C8.1,22.5 8.2,22.4 8.8,22.1 C10.9,21.1 13,20.3 15.2,19.7 C31.2,14.9 47.7,19.7 63.2,24.4 C79.5,29.3 97,34.8 113.9,29.4 C115.9,28.8 118,28 120,27 M124,20.8 C114.9,26.3 104.5,28.4 94,27.6 C83.3,26.8 73,23.5 62.9,20.5 C52.7,17.4 42.4,14.4 31.7,13.9 C26.5,13.7 21.2,14.2 16.1,15.6 C13.6,16.3 11.1,17.2 8.8,18.3 C7.7,18.8 6.7,19.3 5.6,19.9 C5.3,20 4.1,20.5 4,20.8 C4,20.9 4,21 4,21.1 C3.9,21.5 4,22.1 4,22.6 C4,23.3 4,24 4,24.7 C4,25.4 4,26 4,26.7 C4,28.5 4,30.4 4,32.2 C4,36.7 4,41.2 4,45.6 C4,55.1 4,64.7 4,74.2 C4,84.3 4,94.4 4,104.5 C4,105.4 4,106.3 4,107.2 C13.1,101.7 23.6,99.6 34.2,100.4 C44.9,101.2 55.3,104.5 65.5,107.6 C75.7,110.7 86,113.7 96.7,114.1 C101.9,114.3 107.2,113.7 112.2,112.3 C114.7,111.6 117.1,110.7 119.5,109.6 C120.6,109.1 121.6,108.5 122.7,107.9 C123,107.7 123.9,107.4 124,107.1 C124,107 124,106.8 124,106.7 C124.2,104.9 124,103 124,101.2 C124,99.4 124,97.5 124,95.7 C124,89.4 124,83.2 124,76.9 C124,67.5 124,58.1 124,48.7 C124,40.2 124,31.8 124,23.3 C124,22.5 124,21.6 124,20.8 Z" fill="#424242" opacity="0.2"/>
  <path d="M58,73.7 C58,70.6 58.2,67.1 59.7,64.4 C61.4,61.4 64.5,60.2 67.1,58.2 C69.9,56.1 70.8,53.3 70.1,49.9 C69.4,46.7 67,44.5 63.9,43.6 C62.4,43.2 60.7,43.1 59.3,44 C57.9,45 57.5,46.8 57.4,48.5 C54.5,47.6 51.5,46.8 48.6,46.1 C47.9,45.9 47.1,45.7 46.4,45.6 C45.8,45.5 45.8,45.4 45.9,44.8 C45.9,44.4 45.9,44 46,43.6 C46.1,42.1 46.5,40.6 47,39.3 C49.6,33 56.6,32.3 62.5,33.8 C68.7,35.3 74.8,38.5 78.6,43.7 C82.2,48.6 83.7,56.5 80,61.8 C78,64.6 75,66.5 72.2,68.4 C70.8,69.3 69.7,70.5 69,72.1 C68.4,73.6 68.3,75.3 68.2,76.9 C64.9,75.8 61.5,74.7 58,73.7 Z M56.9,85.7 C56.9,83.2 58.4,81.2 61,81.1 C63.8,81 66.6,82.6 68.2,84.7 C69.7,86.7 70.7,90 69.2,92.3 C67.7,94.7 64.5,94.2 62.3,93.3 C59.2,92 56.9,89 56.9,85.7 Z" fill="#0071BC"/>
</svg>
